packages/vibrant-icons/assets/icons/DocumentArrowDown/Regular.svg

<svg fill="none" height="24" viewBox="0 0 24 24" width="24" xmlns="http://www.w3.org/2000/svg"><g fill="#0c0c0c"><path d="m16.6999 14.95-4.6999 4.15-4.70007-4.15 1.2-1.2 2.65007 2.61.0003-5.61h1.7l-.0003 5.61 2.6499-2.61z"/><path clip-rule="evenodd" d="m3.6499 23.0999c-.13807 0-.25-.1119-.25-.25v-21.7c0-.13807.11193-.249998.25-.249998h10.639l.0295.029002 6.2525 6.253996.029.0295v15.6375c0 .1381-.1119.25-.25.25zm9.75-19.977-.023-.023h-7.777v17.8h12.8v-12.7765l-.0235-.0235h-4.9765z" fill-rule="evenodd"/></g></svg>

<svg xmlns="http://www.w3.org/2000/svg" width="24" height="24" fill="none"><g fill="#0c0c0c"><path d="M16.7 14.95 12 19.1l-4.7-4.15 1.2-1.2 2.65 2.61v-5.61h1.7v5.61l2.65-2.61z"/><path fill-rule="evenodd" d="M3.65 23.1a.25.25 0 0 1-.25-.25V1.15A.25.25 0 0 1 3.65.9h10.639l.03.029 6.252 6.254.029.03V22.85a.25.25 0 0 1-.25.25zM13.4 3.123l-.023-.023H5.6v17.8h12.8V8.123l-.024-.023H13.4z" clip-rule="evenodd"/></g></svg>
